symbols/de/zs2-unknown.svg

<?xml version="1.0" encoding="UTF-8" standalone="no"?>
<svg
   width="11.999999"
   height="12"
   viewBox="0 0 11.999999 12"
   version="1.1"
   id="svg6"
   sodipodi:docname="zs2-{Z}.svg"
   inkscape:version="1.2.2 (b0a8486541, 2022-12-01)"
   xmlns:inkscape="http://www.inkscape.org/namespaces/inkscape"
   xmlns:sodipodi="http://sodipodi.sourceforge.net/DTD/sodipodi-0.dtd"
   xmlns="http://www.w3.org/2000/svg"
   xmlns:svg="http://www.w3.org/2000/svg">
  <defs
     id="defs10" />
  <sodipodi:namedview
     id="namedview8"
     pagecolor="#ffffff"
     bordercolor="#666666"
     borderopacity="1.0"
     inkscape:showpageshadow="2"
     inkscape:pageopacity="0.0"
     inkscape:pagecheckerboard="0"
     inkscape:deskcolor="#d1d1d1"
     showgrid="false"
     inkscape:zoom="34.947842"
     inkscape:cx="7.4968863"
     inkscape:cy="3.3049251"
     inkscape:window-width="1920"
     inkscape:window-height="1128"
     inkscape:window-x="0"
     inkscape:window-y="0"
     inkscape:window-maximized="1"
     inkscape:current-layer="svg6" />
  <rect
     x="-1.2"
     y="-1.2"
     width="14.399999"
     height="14.4"
     fill="rgb(0%, 0%, 0%)"
     fill-opacity="1"
     id="rect2" />
  <g
     aria-label="?"
     id="text901"
     style="font-size:14.4037px;line-height:1.25;-inkscape-font-specification:sans-serif;font-variant-ligatures:none;text-align:center;letter-spacing:0px;word-spacing:0px;text-anchor:middle;fill:#ffffff;stroke-width:1.08028">
    <path
       d="M 4.9133922,9.5587469 H 6.3411027 V 11.345143 H 4.9133922 Z M 6.2989043,8.5248876 H 4.9555905 V 7.4417969 q 0,-0.7103387 0.1969256,-1.1674874 Q 5.3494417,5.8171608 5.9824168,5.212318 L 6.6153919,4.5863759 Q 7.0162761,4.2136239 7.1921025,3.8830703 7.374962,3.5525166 7.374962,3.2078969 q 0,-0.6259421 -0.4641818,-1.0127602 -0.4571486,-0.3868181 -1.2167187,-0.3868181 -0.5556115,0 -1.1885866,0.246157 -0.625942,0.246157 -1.3081485,0.7173717 V 1.4496327 Q 3.8584337,1.0487485 4.5336071,0.8518229 5.2158136,0.65489732 5.9402184,0.65489732 q 1.2940824,0 2.0747517,0.68220648 0.7877024,0.6822065 0.7877024,1.8004625 0,0.5345123 -0.2531901,1.0197932 -0.25319,0.4782478 -0.8861651,1.0830907 L 7.0444083,5.8452931 Q 6.7138547,6.1758467 6.5731935,6.3657393 6.4395655,6.5485987 6.383301,6.7244251 6.3411027,6.8721193 6.3200035,7.083111 6.2989043,7.2941027 6.2989043,7.6598217 Z"
       id="path1685" />
  </g>
</svg>

<?xml version="1.0" encoding="UTF-8"?>
<svg xmlns="http://www.w3.org/2000/svg" xmlns:xlink="http://www.w3.org/1999/xlink" width="11.999999" height="12" viewBox="0 0 11.999999 12">
<rect x="-1.2" y="-1.2" width="14.399999" height="14.4" fill="rgb(0%, 0%, 0%)" fill-opacity="1"/>
<path fill-rule="nonzero" fill="rgb(100%, 100%, 100%)" fill-opacity="1" d="M 4.914062 9.558594 L 6.339844 9.558594 L 6.339844 11.34375 L 4.914062 11.34375 Z M 6.300781 8.523438 L 4.957031 8.523438 L 4.957031 7.441406 C 4.957031 6.96875 5.019531 6.578125 5.152344 6.273438 C 5.285156 5.96875 5.558594 5.617188 5.980469 5.210938 L 6.617188 4.585938 C 6.882812 4.335938 7.074219 4.101562 7.191406 3.882812 C 7.3125 3.664062 7.375 3.4375 7.375 3.207031 C 7.375 2.789062 7.21875 2.453125 6.910156 2.195312 C 6.605469 1.9375 6.199219 1.808594 5.695312 1.808594 C 5.324219 1.808594 4.925781 1.890625 4.503906 2.054688 C 4.089844 2.21875 3.652344 2.457031 3.199219 2.773438 L 3.199219 1.449219 C 3.636719 1.183594 4.082031 0.984375 4.535156 0.851562 C 4.988281 0.71875 5.457031 0.65625 5.941406 0.65625 C 6.804688 0.65625 7.496094 0.882812 8.015625 1.335938 C 8.539062 1.792969 8.800781 2.390625 8.800781 3.136719 C 8.800781 3.492188 8.71875 3.832031 8.550781 4.15625 C 8.378906 4.476562 8.085938 4.835938 7.664062 5.242188 L 7.042969 5.84375 C 6.824219 6.066406 6.667969 6.238281 6.574219 6.367188 C 6.484375 6.488281 6.421875 6.605469 6.382812 6.722656 C 6.355469 6.824219 6.335938 6.941406 6.320312 7.082031 C 6.304688 7.222656 6.300781 7.414062 6.300781 7.660156 Z M 6.300781 8.523438 "/>
</svg>
